Newaita/actions/22/media-repeat-track-amarok.svg

<svg height="22" viewBox="0 0 22 22" width="22" xmlns="http://www.w3.org/2000/svg"><g fill="#424242"><path d="m5.914062 20.183594-3.183593-4.546875h2.273437v-13.191407c0-.25.203125-.453124.453125-.453124h.910157c.25 0 .453124.203124.453124.453124v13.191407h2.277344zm0 0"/><path d="m15.917969 1.992188-3.183594 4.546874h2.273437v13.1875c0 .253907.203126.457032.457032.457032h.90625c.253906 0 .457031-.203125.457031-.457032v-13.1875h2.273437zm0 0"/><path d="m9.097656 9.269531c-.253906 0-.457031.199219-.457031.453125 0 .25.203125.453125.457031.453125h.90625v3.183594c0 .253906.203125.457031.457032.457031h.910156c.25 0 .453125-.203125.453125-.457031v-3.636719c0-.054687-.007813-.109375-.027344-.15625-.003906-.015625-.011719-.027344-.015625-.042968-.023438-.042969-.054688-.085938-.089844-.121094-.011718-.011719-.019531-.023438-.03125-.03125-.058594-.046875-.125-.078125-.199218-.09375-.027344-.007813-.058594-.007813-.089844-.007813zm0 0"/></g></svg>

<svg xmlns="http://www.w3.org/2000/svg" xmlns:xlink="http://www.w3.org/1999/xlink" width="22px" height="22px" viewBox="0 0 22 22" version="1.1">
<g id="surface1">
     <defs>
  <style id="current-color-scheme" type="text/css">
   .ColorScheme-Text { color:#424242; } .ColorScheme-Highlight { color:#eeeeee; }
  </style>
 </defs>
<path style="fill:currentColor" class="ColorScheme-Text" d="M 5.914062 20.183594 L 2.730469 15.636719 L 5.003906 15.636719 L 5.003906 2.445312 C 5.003906 2.195312 5.207031 1.992188 5.457031 1.992188 L 6.367188 1.992188 C 6.617188 1.992188 6.820312 2.195312 6.820312 2.445312 L 6.820312 15.636719 L 9.097656 15.636719 Z M 5.914062 20.183594 "/>
     <defs>
  <style id="current-color-scheme" type="text/css">
   .ColorScheme-Text { color:#424242; } .ColorScheme-Highlight { color:#eeeeee; }
  </style>
 </defs>
<path style="fill:currentColor" class="ColorScheme-Text" d="M 15.917969 1.992188 L 12.734375 6.539062 L 15.007812 6.539062 L 15.007812 19.726562 C 15.007812 19.980469 15.210938 20.183594 15.464844 20.183594 L 16.371094 20.183594 C 16.625 20.183594 16.828125 19.980469 16.828125 19.726562 L 16.828125 6.539062 L 19.101562 6.539062 Z M 15.917969 1.992188 "/>
     <defs>
  <style id="current-color-scheme" type="text/css">
   .ColorScheme-Text { color:#424242; } .ColorScheme-Highlight { color:#eeeeee; }
  </style>
 </defs>
<path style="fill:currentColor" class="ColorScheme-Text" d="M 9.097656 9.269531 C 8.84375 9.269531 8.640625 9.46875 8.640625 9.722656 C 8.640625 9.972656 8.84375 10.175781 9.097656 10.175781 L 10.003906 10.175781 L 10.003906 13.359375 C 10.003906 13.613281 10.207031 13.816406 10.460938 13.816406 L 11.371094 13.816406 C 11.621094 13.816406 11.824219 13.613281 11.824219 13.359375 L 11.824219 9.722656 C 11.824219 9.667969 11.816406 9.613281 11.796875 9.566406 C 11.792969 9.550781 11.785156 9.539062 11.78125 9.523438 C 11.757812 9.480469 11.726562 9.4375 11.691406 9.402344 C 11.679688 9.390625 11.671875 9.378906 11.660156 9.371094 C 11.601562 9.324219 11.535156 9.292969 11.460938 9.277344 C 11.433594 9.269531 11.402344 9.269531 11.371094 9.269531 Z M 9.097656 9.269531 "/>
</g>
</svg>
